src/pos-icons/axis-x-rotate-clockwise.svg

<svg height="24" viewBox="0 0 24 24" width="24" xmlns="http://www.w3.org/2000/svg"><path d="m12 10h2.91c-.34-3.45-1.51-6-2.91-6-1.58 0-2.88 3.27-3 7.42l-2 1.15v-.57c0-5.5 2.24-10 5-10 2.42 0 4.44 3.44 4.9 8h3.1l-4 4zm0 12c-1.88 0-3.53-2.08-4.38-5.16l1.75-1.01c.5 2.48 1.49 4.17 2.63 4.17 1.27 0 2.36-2.11 2.79-5.08l1.21 1.2.7-.7c-.7 3.84-2.54 6.58-4.7 6.58m-9.89-3.13-1-1.74-.05-.07 10.06-5.81 1.6 1.59-10.57 6.1zm19.78-13.74 1 1.74-3.69 2.13h-1.43l-.27-1.34z"/></svg>

<?xml version="1.0" encoding="UTF-8"?><!DOCTYPE svg PUBLIC "-//W3C//DTD SVG 1.1//EN" "http://www.w3.org/Graphics/SVG/1.1/DTD/svg11.dtd"><svg xmlns="http://www.w3.org/2000/svg" xmlns:xlink="http://www.w3.org/1999/xlink" version="1.1" id="mdi-axis-x-rotate-clockwise" width="24" height="24" viewBox="0 0 24 24"><path d="M12,10H14.91C14.57,6.55 13.4,4 12,4C10.42,4 9.12,7.27 9,11.42L7,12.57V12C7,6.5 9.24,2 12,2C14.42,2 16.44,5.44 16.9,10H20L16,14L12,10M12,22C10.12,22 8.47,19.92 7.62,16.84L9.37,15.83C9.87,18.31 10.86,20 12,20C13.27,20 14.36,17.89 14.79,14.92L16,16.12L16.7,15.42C16,19.26 14.16,22 12,22M2.11,18.87L1.11,17.13L1.06,17.06L11.12,11.25L12.72,12.84L2.15,18.94L2.11,18.87M21.89,5.13L22.89,6.87L19.2,9H17.77L17.5,7.66L21.89,5.13Z" /></svg>
